src/icons/brand/glyph/FacebookIcon.svg

<svg width="24" height="24" viewBox="0 0 24 24" fill="none" xmlns="http://www.w3.org/2000/svg">
<path d="M15.1743 5.32083H17V2.14083C16.685 2.0975 15.6018 2 14.3402 2C11.708 2 9.90475 3.65583 9.90475 6.69917V9.5H7V13.055H9.90475V22H13.4661V13.0558H16.2534L16.6959 9.50083H13.4653V7.05167C13.4661 6.02417 13.7428 5.32083 15.1743 5.32083V5.32083Z" fill="currentColor"/>
</svg>

<svg xmlns="http://www.w3.org/2000/svg" width="24" height="24" fill="currentColor" viewBox="0 0 24 24">
  <path d="M15.174 5.32H17V2.14A23.574 23.574 0 0 0 14.34 2c-2.632 0-4.435 1.656-4.435 4.7v2.8H7v3.555h2.905V22h3.561v-8.944h2.787l.443-3.555h-3.23V7.05c0-1.027.277-1.73 1.708-1.73Z"/>
</svg>
